ligands/haptic/eta4-cyclopentyl.svg

<svg height="45" viewBox="0 0 66 45" width="66" xmlns="http://www.w3.org/2000/svg"><g transform="matrix(.05 0 0 .05 -170 -244)"><path d="m4038.89 5720.08-20-.37 1.01-54.53 20 .37z"/><path d="m4040.91 5611.01-20-.37 1.01-54.54 20 .37z"/><path d="m4042.93 5501.94-20-.37 1.01-54.54 20 .37z"/><path d="m4044.95 5392.87-20-.37.15-8.01h20z"/><path d="m4048.99 5174.72-20-.37 1.01-54.54 20 .38z"/><path d="m3724.66 5344.49-52.77-80h775.44l-53.03 80z"/><path d="m3455.03 5079.1 39.97 11.28 176.89 174.11 52.77 80z"/><path d="m3567.94 5120.08 14.03-14.26 143.8 141.54-14.03 14.25z"/><path d="m4060.43 4939.11-.01 20.53-565.42 130.74-39.97-11.28z"/><path d="m4664.98 5079.11-40.05 11.26-564.51-130.73.01-20.53z"/><path d="m4624.93 5090.37 40.05-11.26-270.68 265.38 53.03-80z"/><path d="m4537.83 5105.74 14 14.28-144.44 141.61-14-14.28z"/></g></svg>

<svg xmlns="http://www.w3.org/2000/svg" xmlns:xlink="http://www.w3.org/1999/xlink" width="66" height="45" version="1.1" viewBox="0 0 66 45" style="background-color:#ffffff00"><path fill="#000" stroke="none" d="M 4038.89,5720.08 L 4018.89,5719.71 L 4019.9,5665.18 L 4039.9,5665.55 L 4038.89,5720.08 L 4038.89,5720.08 Z" transform="matrix(0.05 0 0 0.05 -170 -244)"/><path fill="#000" stroke="none" d="M 4040.91,5611.01 L 4020.91,5610.64 L 4021.92,5556.1 L 4041.92,5556.47 L 4040.91,5611.01 L 4040.91,5611.01 Z" transform="matrix(0.05 0 0 0.05 -170 -244)"/><path fill="#000" stroke="none" d="M 4042.93,5501.94 L 4022.93,5501.57 L 4023.94,5447.03 L 4043.94,5447.4 L 4042.93,5501.94 L 4042.93,5501.94 Z" transform="matrix(0.05 0 0 0.05 -170 -244)"/><path fill="#000" stroke="none" d="M 4044.95,5392.87 L 4024.95,5392.5 L 4025.1,5384.49 L 4045.1,5384.49 L 4044.95,5392.87 L 4044.95,5392.87 Z" transform="matrix(0.05 0 0 0.05 -170 -244)"/><path fill="#000" stroke="none" d="M 4048.99,5174.72 L 4028.99,5174.35 L 4030,5119.81 L 4050,5120.19 L 4048.99,5174.72 L 4048.99,5174.72 Z" transform="matrix(0.05 0 0 0.05 -170 -244)"/><path fill="#000" stroke="none" d="M 3724.66,5344.49 L 3671.89,5264.49 L 4447.33,5264.49 L 4394.3,5344.49 L 3724.66,5344.49 Z" transform="matrix(0.05 0 0 0.05 -170 -244)"/><path fill="#000" stroke="none" d="M 3455.03,5079.1 L 3495,5090.38 L 3671.89,5264.49 L 3724.66,5344.49 L 3455.03,5079.1 Z" transform="matrix(0.05 0 0 0.05 -170 -244)"/><path fill="#000" stroke="none" d="M 3567.94,5120.08 L 3581.97,5105.82 L 3725.77,5247.36 L 3711.74,5261.61 L 3567.94,5120.08 Z" transform="matrix(0.05 0 0 0.05 -170 -244)"/><path fill="#000" stroke="none" d="M 4060.43,4939.11 L 4060.42,4959.64 L 3495,5090.38 L 3455.03,5079.1 L 4060.43,4939.11 Z" transform="matrix(0.05 0 0 0.05 -170 -244)"/><path fill="#000" stroke="none" d="M 4664.98,5079.11 L 4624.93,5090.37 L 4060.42,4959.64 L 4060.43,4939.11 L 4664.98,5079.11 Z" transform="matrix(0.05 0 0 0.05 -170 -244)"/><path fill="#000" stroke="none" d="M 4624.93,5090.37 L 4664.98,5079.11 L 4394.3,5344.49 L 4447.33,5264.49 L 4624.93,5090.37 Z" transform="matrix(0.05 0 0 0.05 -170 -244)"/><path fill="#000" stroke="none" d="M 4537.83,5105.74 L 4551.83,5120.02 L 4407.39,5261.63 L 4393.39,5247.35 L 4537.83,5105.74 Z" transform="matrix(0.05 0 0 0.05 -170 -244)"/></svg>
